src/assets/frame.svg

<svg width="1920" height="1080" viewBox="0 0 1920 1080" fill="none" xmlns="http://www.w3.org/2000/svg">
<g clip-path="url(#clip0_4_2)">
<path d="M51.0562 792.003C48.4224 791.525 138.849 846.689 220.575 831.565C360.484 805.694 413 931.623 413 931.623L275.006 984L87.929 951.762L51.0562 792.003Z" fill="#262261"/>
<path d="M0 1031C0 756.286 0 579 0 579C0 579 4.55632 714.919 76.1784 843.572C98.8801 884.3 127.177 920.955 171.621 945.711C192.325 957.29 230.614 964.398 275.537 957.051C322.459 949.305 324.937 932.934 372.659 927.024C406.472 922.791 442.682 941.878 471.459 961.044C519.101 992.748 594 1030.84 594 1030.84" fill="#26A9E0"/>
<path d="M1592 1031C1595.73 986.383 1599.45 941.853 1618.25 905.986C1637.05 870.205 1670.92 843.175 1701.33 812.333C1731.66 781.491 1758.6 746.837 1794.47 727.951C1830.33 709.151 1875.21 706.032 1920 703V1031H1592V1031Z" fill="#262261"/>
</g>
<defs>
<clipPath id="clip0_4_2">
<rect width="1920" height="1080" fill="white"/>
</clipPath>
</defs>
</svg>

<?xml version="1.0" encoding="utf-8"?>
<!-- Generator: Adobe Illustrator 24.2.3, SVG Export Plug-In . SVG Version: 6.00 Build 0)  -->
<svg version="1.1" id="Layer_1" xmlns="http://www.w3.org/2000/svg" xmlns:xlink="http://www.w3.org/1999/xlink" x="0px" y="0px"
	 viewBox="0 0 1920 1080" style="enable-background:new 0 0 1920 1080;" xml:space="preserve">
<style type="text/css">
	.st0{fill:none;}
	.st1{fill:#262261;}
	.st2{fill:#26A9E0;}
</style>
<rect y="0" class="st0" width="1920" height="1080"/>
<path class="st1" d="M39.3,796.5c-2.6-0.5,87.8,54.7,169.5,39.6c139.9-25.9,192.4,100.1,192.4,100.1l-138,52.4l-187-32.4L39.3,796.5
	z"/>
<path class="st2" d="M0,1031c0-274.7,0-452,0-452s4.6,135.9,76.2,264.6c22.7,40.7,51,77.4,95.4,102.1c20.7,11.6,59,18.7,103.9,11.3
	c46.9-7.7,49.4-24.1,97.1-30c33.8-4.2,70,14.9,98.8,34c47.6,31.7,122.5,69.8,122.5,69.8"/>
<path class="st1" d="M1592,1031c3.7-44.6,7.4-89.1,26.3-125c18.8-35.8,52.7-62.8,83.1-93.7c30.3-30.8,57.3-65.5,93.1-84.4
	c35.9-18.8,80.7-21.9,125.5-25v328h-328V1031z"/>
</svg>
